X: 8
%%NRChange 2024-10-11
T: Da Lounge Bar
C: Annlaug Børsheim
Z: L. LaCroix
R: Jig
M: 6/8
L: 1/8
K: Dmaj
%%begintext
To be played AB-ABCB...
%%endtext
P:A
(A,|:"Bm"B,)DF TE2D|"D"DFA {c}d2(c|"G"B)GB AFD|"Asus4"EGF T(E2 D)|
"Bm"B,DF TE2D|"D"DFA {c}d2(c|"G"B)GB AFD|1 "Asus4"E2 D DED:|2 "Asus4"E2D DFA||
P:B
|:"D"d3  dcA|"D/F#"F3 (FEF)|"G"GBd d(cA)|"A"E3 (EDE)|
"Bm"{E}F3 FED|"G"B,3 (B,A,B,)|"Asus4"D2(D E)FE|1 "D"D2D (DFA):|2 "D"D3 D2||
P:C
(c|:"Bm"d)Bd Tc2B-|Bdf "Asus4"e2(c|"G"d)cB AdB|"Asus4"AFD E2(c|
"Bm"d)Bd Tc2B-|Bdf "Asus4"e2(c|"G"d)cB AFD|1 "Asus4"E2 D3c:|2 "Asus4"E2D DFA||
%%text https://www.youtube.com/watch?v=N6P6AG9fLks (from "The Good Tune" podcast)
% http://moinejf.free.fr/js/edit-1.xhtml

